dist/img/surf/map_slider/Wind.svg

<svg width="26" height="24" viewBox="0 0 26 24" fill="none" xmlns="http://www.w3.org/2000/svg">
<path d="M17.3337 8.82452H0V10.9922H17.3337C20.3206 10.9922 22.75 8.56028 22.75 5.57251C22.75 2.58378 20.3196 0.152832 17.3337 0.152832C14.3468 0.152832 11.9174 2.58474 11.9174 5.57251H14.0837C14.0837 3.77984 15.5421 2.3205 17.3337 2.3205C19.1252 2.3205 20.5837 3.77984 20.5837 5.57251C20.5837 7.36518 19.1252 8.82452 17.3337 8.82452Z" fill="#4AF6CD"/>
<path d="M20.5837 13.1609H0V15.3286H20.5837C22.3752 15.3286 23.8337 16.7879 23.8337 18.5806C23.8337 20.3732 22.3752 21.8326 20.5837 21.8326C18.7921 21.8326 17.3337 20.3732 17.3337 18.5806H15.1674C15.1674 21.5693 17.5978 24.0002 20.5837 24.0002C23.5706 24.0002 26 21.5683 26 18.5806C26 15.5918 23.5696 13.1609 20.5837 13.1609Z" fill="#4AF6CD"/>
</svg>

<svg width="26" height="24" fill="none" xmlns="http://www.w3.org/2000/svg"><path d="M17.334 8.825H0v2.167h17.334a5.424 5.424 0 005.416-5.42c0-2.988-2.43-5.42-5.416-5.42a5.424 5.424 0 00-5.417 5.42h2.167a3.255 3.255 0 013.25-3.252c1.791 0 3.25 1.46 3.25 3.253a3.255 3.255 0 01-3.25 3.252zm3.25 4.335H0v2.169h20.584a3.255 3.255 0 013.25 3.252 3.255 3.255 0 01-3.25 3.252 3.255 3.255 0 01-3.25-3.252h-2.167c0 2.988 2.43 5.42 5.417 5.42A5.424 5.424 0 0026 18.58c0-2.99-2.43-5.42-5.416-5.42z" fill="#4AF6CD"/></svg>
